X: 15792
T: Goodbye Miss Goodavich
R: reel
M: 4/4
K: Eminor
eB B/B/B cB AG|AE GA DE GA|B/c/d ed ge ag|f2>a2 gf ed|
eB B/B/B cB AG|AE GA DE GA|Ge BG Fd AF|GE BA GE GA|
B2 BB cB AG|AE GA DE GA|Bd ed ge ag|f2>a2 gf ed|
eB B/B/B cB AG|AE GA DE GA|Ge BG Fd AF|GE BA GE GA||
BD G/A/B ed cB|AF F/F/F DF F/F/F|Ad fd2< a2b|ge ed ef ga|
b2>g2 ef ge|ad fa ba gf|ge BG Fd AF|G/F/E BA GE GA|
BD G/A/B ed cB|AF F/F/F DF F/F/F|Ad fd2< a2b|ge ed ef ga|
b2>g2 ef ge|ad fa ba gf|ge BG Fd AF|G/F/E BA GE (3Bcd||

